X: 11
T:Old Woman Tossed Up, Longborough 2
M:6/8
L:1/8
A:Longborough
P:A(AB)5
K:G
P:A
|:D|GAB cde|e2d dBG|BcA dcd|BAG G2:|
P:B
|:g|efg efg|efg gfe|d2d def|ged dBG|
GAB Bcd|e2d dBG|BcA dcd|BAG G2:|
